public/logos/node.svg

<svg clip-rule="evenodd" fill-rule="evenodd" stroke-linejoin="round" stroke-miterlimit="2" viewBox="0 0 233 63" xmlns="http://www.w3.org/2000/svg" xmlns:xlink="http://www.w3.org/1999/xlink"><clipPath id="a"><path clip-rule="evenodd" d="m0 0h1863.85v501.602h-1863.85z"/></clipPath><g clip-path="url(#a)" fill="#495057" transform="matrix(.125 0 0 -.125 0 62.7)"><path d="m279.48 235.035c0 5.418-2.847 10.399-7.527 13.086l-124.687 71.758c-2.11 1.238-4.473 1.883-6.868 1.98h-1.289c-2.379-.097-4.746-.742-6.882-1.98l-124.688-71.758c-4.648-2.687-7.539-7.668-7.539-13.086l.273-193.222c0-2.688 1.395-5.188 3.758-6.504 2.317-1.387 5.176-1.387 7.485 0l74.097 42.429c4.688 2.785 7.543 7.696 7.543 13.067v90.273c0 5.383 2.852 10.363 7.52 13.039l31.551 18.172c2.351 1.359 4.921 2.023 7.546 2.023 2.571 0 5.207-.664 7.493-2.023l31.543-18.172c4.668-2.676 7.531-7.656 7.531-13.039v-90.273c0-5.371 2.89-10.313 7.547-13.067l74.082-42.429c2.324-1.387 5.222-1.387 7.527 0 2.297 1.316 3.742 3.816 3.742 6.504z"/><path d="m933.711 134.426c0-1.344-.719-2.59-1.887-3.258l-42.824-24.688c-1.164-.668-2.598-.668-3.762 0l-42.828 24.688c-1.164.668-1.883 1.914-1.883 3.258v49.453c0 1.34.719 2.586 1.879 3.262l42.828 24.734c1.168.676 2.602.676 3.77 0l42.828-24.734c1.16-.676 1.879-1.922 1.879-3.262zm11.57 366.222c-2.332 1.301-5.179 1.27-7.484-.082-2.301-1.351-3.715-3.824-3.715-6.492v-191.355c0-1.879-1.008-3.621-2.633-4.563-1.629-.945-3.64-.945-5.273 0l-31.231 17.992c-4.656 2.684-10.39 2.68-15.047-.003l-124.738-71.989c-4.664-2.691-7.531-7.66-7.531-13.043v-144.004c0-5.379 2.867-10.351 7.527-13.046l124.731-72.04c4.664-2.691 10.406-2.691 15.07 0l124.753 72.04c4.66 2.695 7.53 7.668 7.53 13.046v358.965c0 5.461-2.96 10.492-7.73 13.156z"/><path d="m1391.55 185.172c4.64 2.695 7.49 7.656 7.49 13.023v34.895c0 5.367-2.85 10.332-7.5 13.027l-123.93 71.961c-4.67 2.707-10.42 2.711-15.1.02l-124.69-71.989c-4.66-2.691-7.53-7.66-7.53-13.043v-143.964c0-5.415 2.91-10.411 7.61-13.086l123.92-70.61c4.57-2.609 10.17-2.636 14.77-.082l74.95 41.66c2.38 1.321 3.86 3.817 3.87 6.532.02 2.714-1.43 5.23-3.78 6.582l-125.48 72.023c-2.35 1.34-3.79 3.836-3.79 6.531v45.118c0 2.691 1.44 5.179 3.77 6.523l39.06 22.516c2.32 1.343 5.19 1.343 7.52 0l39.07-22.516c2.33-1.344 3.77-3.832 3.77-6.523v-35.497c0-2.695 1.44-5.187 3.77-6.531 2.34-1.347 5.21-1.336 7.54.016z"/><path d="m506.301 318.852c4.656 2.691 10.398 2.691 15.054 0l124.723-71.973c4.664-2.688 7.535-7.66 7.535-13.047v-144.055c0-5.383-2.871-10.351-7.527-13.047l-124.723-72.031c-4.664-2.691-10.406-2.691-15.07 0l-124.691 72.032c-4.661 2.695-7.532 7.664-7.532 13.046v144.063c0 5.379 2.871 10.351 7.535 13.039z"/><g fill-rule="nonzero"><path d="m1633.71 2.641c-4.3 0-8.57 1.125-12.33 3.3l-39.27 23.235c-5.86 3.281-3 4.441-1.07 5.117 7.83 2.715 9.41 3.34 17.76 8.074.87.489 2.02.305 2.92-.222l30.16-17.911c1.1-.605 2.64-.605 3.65 0l117.6 67.879c1.1.625 1.8 1.887 1.8 3.184v135.723c0 1.328-.7 2.57-1.82 3.242l-117.56 67.824c-1.09.633-2.53.633-3.63 0l-117.53-67.844c-1.14-.652-1.86-1.933-1.86-3.222v-135.723c0-1.297.72-2.528 1.85-3.145l32.22-18.613c17.48-8.738 28.19 1.555 28.19 11.895v134.004c0 1.894 1.52 3.39 3.41 3.39h14.92c1.86 0 3.4-1.496 3.4-3.39v-134.004c0-23.329-12.7-36.707-34.82-36.707-6.8 0-12.15 0-27.09 7.363l-30.84 17.754c-7.62 4.402-12.33 12.636-12.33 21.453v135.723c0 8.82 4.71 17.05 12.33 21.437l117.61 67.957c7.44 4.211 17.33 4.211 24.71 0l117.6-67.957c7.62-4.406 12.35-12.617 12.35-21.437v-135.723c0-8.817-4.73-17.02-12.35-21.453l-117.6-67.903c-3.76-2.175-8.02-3.3-12.38-3.3"/><path d="m1670.04 96.148c-51.47 0-62.25 23.622-62.25 43.438 0 1.883 1.52 3.387 3.4 3.387h15.21c1.7 0 3.11-1.219 3.38-2.879 2.29-15.481 9.14-23.293 40.26-23.293 24.77 0 35.32 5.605 35.32 18.75 0 7.578-2.99 13.203-41.49 16.972-32.18 3.184-52.08 10.293-52.08 36.036 0 23.73 20 37.882 53.53 37.882 37.68 0 56.32-13.078 58.68-41.132.09-.969-.25-1.895-.89-2.618-.65-.675-1.55-1.086-2.49-1.086h-15.27c-1.58 0-2.98 1.125-3.3 2.657-3.66 16.289-12.57 21.496-36.73 21.496-27.05 0-30.19-9.426-30.19-16.485 0-8.554 3.71-11.046 40.23-15.878 36.14-4.778 53.31-11.543 53.31-36.946 0-25.625-21.37-40.301-58.63-40.301"/><path d="m1832.21 320.102v-3.485h-9.9v-25.793h-3.99v25.793h-9.86v3.485z"/><path d="m1835.74 320.102h5.69l8.4-24.747 8.37 24.747h5.65v-29.278h-3.79v17.278c0 .605.01 1.589.03 2.957.04 1.406.06 2.89.06 4.464l-8.37-24.699h-3.93l-8.44 24.699v-.878c0-.723 0-1.817.05-3.301.03-1.457.07-2.539.07-3.242v-17.278h-3.79z"/></g><path d="m1258.22 191.914c.9.52 2 .52 2.89 0l23.94-13.809c.89-.515 1.44-1.468 1.44-2.503v-27.637c0-1.035-.55-1.988-1.44-2.504l-23.94-13.809c-.89-.519-1.99-.519-2.89 0l-23.91 13.809c-.9.516-1.45 1.469-1.45 2.504v27.637c0 1.035.55 1.988 1.45 2.503z"/></g></svg>

<?xml version="1.0" encoding="UTF-8" standalone="no"?>
<!DOCTYPE svg PUBLIC "-//W3C//DTD SVG 1.1//EN" "http://www.w3.org/Graphics/SVG/1.1/DTD/svg11.dtd">
<svg width="100%" height="100%" viewBox="0 0 233 63" version="1.1" xmlns="http://www.w3.org/2000/svg" xmlns:xlink="http://www.w3.org/1999/xlink" xml:space="preserve" xmlns:serif="http://www.serif.com/" style="fill-rule:evenodd;clip-rule:evenodd;stroke-linejoin:round;stroke-miterlimit:2;">
    <g transform="matrix(0.125,0,0,-0.125,0,62.7)">
        <g id="g10">
            <g id="g12">
                <g id="g14">
                    <g id="g16">
                        <clipPath id="_clip1">
                            <rect x="0" y="0" width="1863.85" height="501.602"/>
                        </clipPath>
                        <g clip-path="url(#_clip1)">
                            <path id="path22" d="M279.48,235.035C279.48,240.453 276.633,245.434 271.953,248.121L147.266,319.879C145.156,321.117 142.793,321.762 140.398,321.859L139.109,321.859C136.73,321.762 134.363,321.117 132.227,319.879L7.539,248.121C2.891,245.434 0,240.453 0,235.035L0.273,41.813C0.273,39.125 1.668,36.625 4.031,35.309C6.348,33.922 9.207,33.922 11.516,35.309L85.613,77.738C90.301,80.523 93.156,85.434 93.156,90.805L93.156,181.078C93.156,186.461 96.008,191.441 100.676,194.117L132.227,212.289C134.578,213.648 137.148,214.312 139.773,214.312C142.344,214.312 144.98,213.648 147.266,212.289L178.809,194.117C183.477,191.441 186.34,186.461 186.34,181.078L186.34,90.805C186.34,85.434 189.23,80.492 193.887,77.738L267.969,35.309C270.293,33.922 273.191,33.922 275.496,35.309C277.793,36.625 279.238,39.125 279.238,41.813L279.48,235.035" style="fill:rgb(73,80,87);"/>
                            <path id="path24" d="M933.711,134.426C933.711,133.082 932.992,131.836 931.824,131.168L889,106.48C887.836,105.812 886.402,105.812 885.238,106.48L842.41,131.168C841.246,131.836 840.527,133.082 840.527,134.426L840.527,183.879C840.527,185.219 841.246,186.465 842.406,187.141L885.234,211.875C886.402,212.551 887.836,212.551 889.004,211.875L931.832,187.141C932.992,186.465 933.711,185.219 933.711,183.879L933.711,134.426ZM945.281,500.648C942.949,501.949 940.102,501.918 937.797,500.566C935.496,499.215 934.082,496.742 934.082,494.074L934.082,302.719C934.082,300.84 933.074,299.098 931.449,298.156C929.82,297.211 927.809,297.211 926.176,298.156L894.945,316.148C890.289,318.832 884.555,318.828 879.898,316.145L755.16,244.156C750.496,241.465 747.629,236.496 747.629,231.113L747.629,87.109C747.629,81.73 750.496,76.758 755.156,74.063L879.887,2.023C884.551,-0.668 890.293,-0.668 894.957,2.023L1019.71,74.063C1024.37,76.758 1027.24,81.731 1027.24,87.109L1027.24,446.074C1027.24,451.535 1024.28,456.566 1019.51,459.23L945.281,500.648" style="fill:rgb(73,80,87);"/>
                            <path id="path26" d="M1391.55,185.172C1396.19,187.867 1399.04,192.828 1399.04,198.195L1399.04,233.09C1399.04,238.457 1396.19,243.422 1391.54,246.117L1267.61,318.078C1262.94,320.785 1257.19,320.789 1252.51,318.098L1127.82,246.109C1123.16,243.418 1120.29,238.449 1120.29,233.066L1120.29,89.102C1120.29,83.687 1123.2,78.691 1127.9,76.016L1251.82,5.406C1256.39,2.797 1261.99,2.77 1266.59,5.324L1341.54,46.984C1343.92,48.305 1345.4,50.801 1345.41,53.516C1345.43,56.23 1343.98,58.746 1341.63,60.098L1216.15,132.121C1213.8,133.461 1212.36,135.957 1212.36,138.652L1212.36,183.77C1212.36,186.461 1213.8,188.949 1216.13,190.293L1255.19,212.809C1257.51,214.152 1260.38,214.152 1262.71,212.809L1301.78,190.293C1304.11,188.949 1305.55,186.461 1305.55,183.77L1305.55,148.273C1305.55,145.578 1306.99,143.086 1309.32,141.742C1311.66,140.395 1314.53,140.406 1316.86,141.758L1391.55,185.172" style="fill:rgb(73,80,87);"/>
                            <path id="path28" d="M506.301,318.852C510.957,321.543 516.699,321.543 521.355,318.852L646.078,246.879C650.742,244.191 653.613,239.219 653.613,233.832L653.613,89.777C653.613,84.394 650.742,79.426 646.086,76.73L521.363,4.699C516.699,2.008 510.957,2.008 506.293,4.699L381.602,76.731C376.941,79.426 374.07,84.395 374.07,89.777L374.07,233.84C374.07,239.219 376.941,244.191 381.605,246.879L506.301,318.852" style="fill:rgb(73,80,87);"/>
                            <path id="path30" d="M1633.71,2.641C1629.41,2.641 1625.14,3.766 1621.38,5.941L1582.11,29.176C1576.25,32.457 1579.11,33.617 1581.04,34.293C1588.87,37.008 1590.45,37.633 1598.8,42.367C1599.67,42.856 1600.82,42.672 1601.72,42.145L1631.88,24.234C1632.98,23.629 1634.52,23.629 1635.53,24.234L1753.13,92.113C1754.23,92.738 1754.93,94 1754.93,95.297L1754.93,231.02C1754.93,232.348 1754.23,233.59 1753.11,234.262L1635.55,302.086C1634.46,302.719 1633.02,302.719 1631.92,302.086L1514.39,234.242C1513.25,233.59 1512.53,232.309 1512.53,231.02L1512.53,95.297C1512.53,94 1513.25,92.769 1514.38,92.152L1546.6,73.539C1564.08,64.801 1574.79,75.094 1574.79,85.434L1574.79,219.438C1574.79,221.332 1576.31,222.828 1578.2,222.828L1593.12,222.828C1594.98,222.828 1596.52,221.332 1596.52,219.438L1596.52,85.434C1596.52,62.105 1583.82,48.727 1561.7,48.727C1554.9,48.727 1549.55,48.727 1534.61,56.09L1503.77,73.844C1496.15,78.246 1491.44,86.48 1491.44,95.297L1491.44,231.02C1491.44,239.84 1496.15,248.07 1503.77,252.457L1621.38,320.414C1628.82,324.625 1638.71,324.625 1646.09,320.414L1763.69,252.457C1771.31,248.051 1776.04,239.84 1776.04,231.02L1776.04,95.297C1776.04,86.48 1771.31,78.277 1763.69,73.844L1646.09,5.941C1642.33,3.766 1638.07,2.641 1633.71,2.641" style="fill:rgb(73,80,87);fill-rule:nonzero;"/>
                            <path id="path32" d="M1670.04,96.148C1618.57,96.148 1607.79,119.77 1607.79,139.586C1607.79,141.469 1609.31,142.973 1611.19,142.973L1626.4,142.973C1628.1,142.973 1629.51,141.754 1629.78,140.094C1632.07,124.613 1638.92,116.801 1670.04,116.801C1694.81,116.801 1705.36,122.406 1705.36,135.551C1705.36,143.129 1702.37,148.754 1663.87,152.523C1631.69,155.707 1611.79,162.816 1611.79,188.559C1611.79,212.289 1631.79,226.441 1665.32,226.441C1703,226.441 1721.64,213.363 1724,185.309C1724.09,184.34 1723.75,183.414 1723.11,182.691C1722.46,182.016 1721.56,181.605 1720.62,181.605L1705.35,181.605C1703.77,181.605 1702.37,182.73 1702.05,184.262C1698.39,200.551 1689.48,205.758 1665.32,205.758C1638.27,205.758 1635.13,196.332 1635.13,189.273C1635.13,180.719 1638.84,178.227 1675.36,173.395C1711.5,168.617 1728.67,161.852 1728.67,136.449C1728.67,110.824 1707.3,96.148 1670.04,96.148" style="fill:rgb(73,80,87);fill-rule:nonzero;"/>
                            <path id="path34" d="M1832.21,320.102L1832.21,316.617L1822.31,316.617L1822.31,290.824L1818.32,290.824L1818.32,316.617L1808.46,316.617L1808.46,320.102L1832.21,320.102" style="fill:rgb(73,80,87);fill-rule:nonzero;"/>
                            <path id="path36" d="M1835.74,320.102L1841.43,320.102L1849.83,295.355L1858.2,320.102L1863.85,320.102L1863.85,290.824L1860.06,290.824L1860.06,308.102C1860.06,308.707 1860.07,309.691 1860.09,311.059C1860.13,312.465 1860.15,313.949 1860.15,315.523L1851.78,290.824L1847.85,290.824L1839.41,315.523L1839.41,314.645C1839.41,313.922 1839.41,312.828 1839.46,311.344C1839.49,309.887 1839.53,308.805 1839.53,308.102L1839.53,290.824L1835.74,290.824L1835.74,320.102" style="fill:rgb(73,80,87);fill-rule:nonzero;"/>
                            <path id="path38" d="M1258.22,191.914C1259.12,192.434 1260.22,192.434 1261.11,191.914L1285.05,178.105C1285.94,177.59 1286.49,176.637 1286.49,175.602L1286.49,147.965C1286.49,146.93 1285.94,145.977 1285.05,145.461L1261.11,131.652C1260.22,131.133 1259.12,131.133 1258.22,131.652L1234.31,145.461C1233.41,145.977 1232.86,146.93 1232.86,147.965L1232.86,175.602C1232.86,176.637 1233.41,177.59 1234.31,178.105L1258.22,191.914" style="fill:rgb(73,80,87);"/>
                        </g>
                    </g>
                </g>
            </g>
        </g>
    </g>
</svg>
